X:1
T:Kelvin, 87.87
T:Kelvin, 87.87
T:Sabbath Hymn and Tune Book, 1859
T:Public Domain Courtesy of the Cyber Hymnal™
C:Sabbath Hymn and Tune Book, 1859
Z:Public Domain
Z:Courtesy of the Cyber Hymnal™
%%score ( 1 2 ) 3
L:1/8
Q:1/4=104
M:none
K:E
V:1 treble 
V:2 treble 
V:3 bass 
V:1
 [EG]2 (B>A) [EG]2 [DF]2 | E2 [EA]2 [EG]2 [DF]2 | [EG]2 (B>A) [EG]2 [DF]2 | [CE]2 [DF]2 [EG]4 | %4
 [Ee]2 [EB]2 [EG]2 [FB]2 | [Ee]2 [FB]2 [EG]2 [EB]2 | [Ee]2 [EB]2 [Ec]2 (BA) | [EG]2 [DF]2 E4 |] %8
V:2
 x2 F2 x4 | E2 x6 | x2 F2 x4 | x8 | x8 | x8 | x6 E2 | x4 E4 |] %8
V:3
 [E,B,]2 [D,B,]2 [E,B,]2 [B,,B,]2 | [C,G,]2 [A,,C]2 [B,,B,]2 [B,,B,]2 | %2
 [E,B,]2 [D,B,]2 [E,B,]2 [B,,B,]2 | [C,G,]2 [B,,B,]2 [E,B,]4 | [E,G,]2 [E,G,]2 [E,B,]2 [D,F,]2 | %5
 [C,G,]2 [D,B,]2 [E,B,]2 [G,,B,]2 | [C,G,]2 [G,,B,]2 [A,,A,]2 ([G,,B,][A,,C]) | %7
 [B,,B,]2 [B,,A,]2 [E,G,]4 |] %8

